img/items/pot-0.svg

<svg viewBox="0 0 30 29.1" xmlns="http://www.w3.org/2000/svg"><path d="m8.2 16s2.4-2.6 4.9-3.9 4.9-2.2 5.7-2.2c.7 0 7 10.3 7.3 11s-3.2 7.1-9.5 7.5c-4.5.3-4.7-2.4-5.7-5-1.2-3.4-2.9-6.9-2.7-7.4" fill="#fff"/><path d="m5.8 9.8c2.6.8 8.5-2.4 9.6-5.2l-.7-1.7c-.4-.6-2.2-1.9-2.2-1.9s-1.4-.5-3.9.5c-2.6 1-3.9 3-4.3 4 0 0-.8 1.7.5 3.4 1.3 1.8 1 .9 1 .9" fill="#b6b6b7"/><g fill="#221f1f"><path d="m20.7 27.5c-3.6 1.9-7.4.9-8.2.1-.8-.6-5.8-13.7-7.4-17.8-.9-1-1.4-2.1-1.2-3.4.2-1.7 1.5-3.5 3.4-4.6 1.7-1 3.5-1.4 5.3-1 2.1.4 3.1 3.2 3.2 3.7 1.2 1.5 10.1 14.3 10.3 15.9.4 1.9-1.9 5.3-5.4 7.1zm-7.8-.4c.7.5 4.1 1.5 7.4-.2 3.5-1.8 5.4-4.9 5.1-6.3-.2-1.1-6.2-10.1-10.2-15.8v-.1s-.9-2.9-2.7-3.2c-1.7-.3-3.2 0-4.8.9-1.8 1-3 2.5-3.1 4-.1 1.1.2 2 1.1 2.9 0 0 .1.1.1.1 2.4 6.5 6.5 17 7.1 17.7zm-2.7-20c-.2.1-.4 0-.5-.2s0-.4.2-.5c2.8-1.4 3.6-3.1 3.6-3.1.1-.2.3-.2.5-.2.2.1.2.3.2.5-.1.2-1 2-4 3.5z"/><path d="m9.2 4.6c.3-.2.1-.7-.3-.5-.3.2 0 .7.3.5"/><path d="m7.6 4.8c.3-.2.1-.7-.3-.5-.3.1 0 .6.3.5"/><path d="m6.4 5.6c.4-.2.1-.7-.2-.6-.4.2-.1.7.2.6"/><path d="m8.6 3.3c.4-.1.1-.7-.2-.5-.4.2-.1.7.2.5"/><path d="m10.1 3.3c.3-.2.1-.7-.3-.5-.3.2-.1.7.3.5"/><path d="m11.4 2.9c.3-.2.1-.7-.3-.5-.3.2-.1.7.3.5"/><path d="m15.6 14.8c-.2.1-.4 0-.5-.1-.1-.2 0-.4.1-.5 2.4-1.4 3.7-2.7 3.6-3.7 0 0 0-.1-.1-.1-.6-.3-2.8.4-5.6 1.9-3.2 1.8-4.9 3.5-4.7 4.1.1.2 0 .4-.2.5s-.4 0-.5-.2c-.6-1.7 3.6-4.2 5-5 2.2-1.2 5.2-2.5 6.2-2 .3.1.4.3.5.6.3 1.4-1 2.9-3.8 4.5z"/><path d="m14.7 24.1c.3-.2.1-.7-.3-.5-.3.2-.1.7.3.5"/><path d="m11.5 20c.3-.2.1-.7-.3-.5-.3.2 0 .7.3.5"/><path d="m14 26.2c.3-.2.1-.7-.3-.5-.4.1-.1.7.3.5"/><path d="m18 26.4c.3-.2.1-.7-.3-.5s-.1.7.3.5"/><path d="m17.8 22.8c.3-.2.1-.7-.3-.5-.3.2-.1.7.3.5"/><path d="m13.3 22.6c.3-.2.1-.7-.3-.5-.4.1-.1.7.3.5"/><path d="m21 17.7c.3-.2.1-.7-.3-.5-.3.2-.1.7.3.5"/><path d="m12.6 24.1c.3-.2.1-.7-.3-.5-.3.1 0 .6.3.5"/><path d="m10.9 8.8c-1.9 1-4 1.5-5.4 1.2-.2-.1-.3-.3-.2-.5s.3-.3.4-.2c2.5.7 8.2-2.3 9.2-5 .1-.2.3-.3.5-.2s.3.3.2.5c-.6 1.5-2.6 3.1-4.7 4.2z"/></g></svg>

<?xml version="1.0" encoding="utf-8"?>
<!-- Generator: Adobe Illustrator 22.0.1, SVG Export Plug-In . SVG Version: 6.00 Build 0)  -->
<svg version="1.1" id="Layer_1" xmlns="http://www.w3.org/2000/svg" xmlns:xlink="http://www.w3.org/1999/xlink" x="0px" y="0px"
	 viewBox="0 0 30 29.1" style="enable-background:new 0 0 30 29.1;" xml:space="preserve">
<style type="text/css">
	.st0{fill:#FFFFFF;}
	.st1{fill:#B6B6B7;}
	.st2{fill:#221F1F;}
</style>
<g>
	<path class="st0" d="M8.2,16c0,0,2.4-2.6,4.9-3.9c2.5-1.3,4.9-2.2,5.7-2.2c0.7,0,7,10.3,7.3,11c0.3,0.7-3.2,7.1-9.5,7.5
		c-4.5,0.3-4.7-2.4-5.7-5C9.7,20,8,16.5,8.2,16"/>
	<path class="st1" d="M5.8,9.8c2.6,0.8,8.5-2.4,9.6-5.2l-0.7-1.7C14.3,2.3,12.5,1,12.5,1s-1.4-0.5-3.9,0.5c-2.6,1-3.9,3-4.3,4
		c0,0-0.8,1.7,0.5,3.4C6.1,10.7,5.8,9.8,5.8,9.8"/>
	<path class="st2" d="M20.7,27.5c-3.6,1.9-7.4,0.9-8.2,0.1l0,0C11.7,27,6.7,13.9,5.1,9.8c-0.9-1-1.4-2.1-1.2-3.4
		c0.2-1.7,1.5-3.5,3.4-4.6c1.7-1,3.5-1.4,5.3-1c2.1,0.4,3.1,3.2,3.2,3.7C17,6,25.9,18.8,26.1,20.4C26.5,22.3,24.2,25.7,20.7,27.5z
		 M12.9,27.1c0.7,0.5,4.1,1.5,7.4-0.2c3.5-1.8,5.4-4.9,5.1-6.3c-0.2-1.1-6.2-10.1-10.2-15.8c0,0,0-0.1,0-0.1c0,0-0.9-2.9-2.7-3.2
		c-1.7-0.3-3.2,0-4.8,0.9C5.9,3.4,4.7,4.9,4.6,6.4c-0.1,1.1,0.2,2,1.1,2.9c0,0,0.1,0.1,0.1,0.1C8.2,15.9,12.3,26.4,12.9,27.1z
		 M10.2,7.1c-0.2,0.1-0.4,0-0.5-0.2c-0.1-0.2,0-0.4,0.2-0.5c2.8-1.4,3.6-3.1,3.6-3.1c0.1-0.2,0.3-0.2,0.5-0.2
		c0.2,0.1,0.2,0.3,0.2,0.5C14.1,3.8,13.2,5.6,10.2,7.1z"/>
	<path class="st2" d="M9.2,4.6c0.3-0.2,0.1-0.7-0.3-0.5C8.6,4.3,8.9,4.8,9.2,4.6"/>
	<path class="st2" d="M7.6,4.8c0.3-0.2,0.1-0.7-0.3-0.5C7,4.4,7.3,4.9,7.6,4.8"/>
	<path class="st2" d="M6.4,5.6C6.8,5.4,6.5,4.9,6.2,5C5.8,5.2,6.1,5.7,6.4,5.6"/>
	<path class="st2" d="M8.6,3.3C9,3.2,8.7,2.6,8.4,2.8C8,3,8.3,3.5,8.6,3.3"/>
	<path class="st2" d="M10.1,3.3c0.3-0.2,0.1-0.7-0.3-0.5C9.5,3,9.7,3.5,10.1,3.3"/>
	<path class="st2" d="M11.4,2.9c0.3-0.2,0.1-0.7-0.3-0.5C10.8,2.6,11,3.1,11.4,2.9"/>
	<path class="st2" d="M15.6,14.8c-0.2,0.1-0.4,0-0.5-0.1c-0.1-0.2,0-0.4,0.1-0.5c2.4-1.4,3.7-2.7,3.6-3.7c0,0,0-0.1-0.1-0.1
		c-0.6-0.3-2.8,0.4-5.6,1.9c-3.2,1.8-4.9,3.5-4.7,4.1c0.1,0.2,0,0.4-0.2,0.5c-0.2,0.1-0.4,0-0.5-0.2c-0.6-1.7,3.6-4.2,5-5
		c2.2-1.2,5.2-2.5,6.2-2c0.3,0.1,0.4,0.3,0.5,0.6C19.7,11.7,18.4,13.2,15.6,14.8C15.6,14.8,15.6,14.8,15.6,14.8z"/>
	<path class="st2" d="M14.7,24.1c0.3-0.2,0.1-0.7-0.3-0.5C14.1,23.8,14.3,24.3,14.7,24.1"/>
	<path class="st2" d="M11.5,20c0.3-0.2,0.1-0.7-0.3-0.5C10.9,19.7,11.2,20.2,11.5,20"/>
	<path class="st2" d="M14,26.2c0.3-0.2,0.1-0.7-0.3-0.5C13.3,25.8,13.6,26.4,14,26.2"/>
	<path class="st2" d="M18,26.4c0.3-0.2,0.1-0.7-0.3-0.5C17.3,26.1,17.6,26.6,18,26.4"/>
	<path class="st2" d="M17.8,22.8c0.3-0.2,0.1-0.7-0.3-0.5C17.2,22.5,17.4,23,17.8,22.8"/>
	<path class="st2" d="M13.3,22.6c0.3-0.2,0.1-0.7-0.3-0.5C12.6,22.2,12.9,22.8,13.3,22.6"/>
	<path class="st2" d="M21,17.7c0.3-0.2,0.1-0.7-0.3-0.5C20.4,17.4,20.6,17.9,21,17.7"/>
	<path class="st2" d="M12.6,24.1c0.3-0.2,0.1-0.7-0.3-0.5C12,23.7,12.3,24.2,12.6,24.1"/>
	<path class="st2" d="M10.9,8.8c-1.9,1-4,1.5-5.4,1.2C5.3,9.9,5.2,9.7,5.3,9.5c0.1-0.2,0.3-0.3,0.4-0.2c2.5,0.7,8.2-2.3,9.2-5
		C15,4.1,15.2,4,15.4,4.1c0.2,0.1,0.3,0.3,0.2,0.5C15,6.1,13,7.7,10.9,8.8z"/>
</g>
</svg>
